public/images/img_videocamera.svg

<svg fill="none" height="27" viewBox="0 0 88 27" width="88" xmlns="http://www.w3.org/2000/svg"><g fill="#fff"><path d="m28.9965 2.88039c-2.1831-1.00173-4.5242-1.73976-6.972-2.162457-.0446-.008158-.0891.012229-.1121.053004-.3011.535513-.6346 1.234123-.8681 1.783233-2.6328-.39415-5.252-.39415-7.8308 0-.2336-.56131-.5792-1.24772-.8816-1.783233-.023-.039415-.0675-.059802-.1121-.053004-2.44643.421347-4.78754 1.159377-6.97206 2.162457-.01891.00816-.03512.02176-.04588.03942-4.440601 6.63416-5.657067 13.10529-5.06031 19.49609.002701.0313.020252.0612.044555.0802 2.929785 2.1516 5.767775 3.4578 8.553065 4.3236.04458.0136.09181-.0027.12018-.0395.65886-.8997 1.24615-1.8484 1.74975-2.8461.0297-.0584.0013-.1277-.0594-.1508-.93158-.3534-1.81863-.7843-2.67191-1.2736-.0675-.0394-.0729-.1359-.01081-.1821.17956-.1346.35917-.2746.53063-.4159.03102-.0259.07425-.0313.11072-.015 5.60567 2.5594 11.67457 2.5594 17.21417 0 .0364-.0177.0796-.0122.112.0136.1715.1414.3511.2827.532.4173.0621.0462.058.1427-.0095.1821-.8532.4988-1.7403.9202-2.6732 1.2722-.0608.0231-.0878.0938-.0581.1522.5144.9963 1.1017 1.945 1.7484 2.8448.027.0381.0756.0544.1202.0408 2.7988-.8658 5.6368-2.172 8.5666-4.3236.0256-.019.0418-.0475.0445-.0788.7142-7.3886-1.1962-13.80659-5.0643-19.49614-.0095-.01901-.0256-.03261-.0446-.04077zm-17.5503 15.64421c-1.68769 0-3.07831-1.5495-3.07831-3.4523 0-1.9029 1.36365-3.4523 3.07831-3.4523 1.7282 0 3.1053 1.563 3.0783 3.4523 0 1.9028-1.3637 3.4523-3.0783 3.4523zm11.3816 0c-1.6877 0-3.0783-1.5495-3.0783-3.4523 0-1.9029 1.3636-3.4523 3.0783-3.4523 1.7282 0 3.1053 1.563 3.0783 3.4523 0 1.9028-1.3501 3.4523-3.0783 3.4523z"/><path d="m81.6811 0h4.5304l-9.8953 11.3856 11.6836 15.439h-9.18l-7.1532-9.3588-8.2262 9.3588h-4.5304l10.6106-12.1605-11.2067-14.6641h9.4184l6.4975 8.58387zm-1.6095 24.0825h2.5037l-16.214-21.51926h-2.7421z"/></g></svg>

<svg width="88" height="27" viewBox="0 0 88 27" fill="none" xmlns="http://www.w3.org/2000/svg">
<path d="M28.9965 2.88039C26.8134 1.87866 24.4723 1.14063 22.0245 0.717933C21.9799 0.709775 21.9354 0.730162 21.9124 0.770937C21.6113 1.30645 21.2778 2.00506 21.0443 2.55417C18.4115 2.16002 15.7923 2.16002 13.2135 2.55417C12.9799 1.99286 12.6343 1.30645 12.3319 0.770937C12.3089 0.731522 12.2644 0.711135 12.2198 0.717933C9.77337 1.13928 7.43226 1.87731 5.24774 2.88039C5.22883 2.88855 5.21262 2.90215 5.20186 2.91981C0.761259 9.55397 -0.455207 16.0251 0.14155 22.4159C0.144251 22.4472 0.161802 22.4771 0.186105 22.4961C3.11589 24.6477 5.95388 25.9539 8.73917 26.8197C8.78375 26.8333 8.83098 26.817 8.85935 26.7802C9.51821 25.8805 10.1055 24.9318 10.6091 23.9341C10.6388 23.8757 10.6104 23.8064 10.5497 23.7833C9.61812 23.4299 8.73107 22.999 7.87779 22.5097C7.81029 22.4703 7.80489 22.3738 7.86698 22.3276C8.04654 22.193 8.22615 22.053 8.39761 21.9117C8.42863 21.8858 8.47186 21.8804 8.50833 21.8967C14.114 24.4561 20.1829 24.4561 25.7225 21.8967C25.7589 21.879 25.8021 21.8845 25.8345 21.9103C26.006 22.0517 26.1856 22.193 26.3665 22.3276C26.4286 22.3738 26.4245 22.4703 26.357 22.5097C25.5038 23.0085 24.6167 23.4299 23.6838 23.7819C23.623 23.805 23.596 23.8757 23.6257 23.9341C24.1401 24.9304 24.7274 25.8791 25.3741 26.7789C25.4011 26.817 25.4497 26.8333 25.4943 26.8197C28.2931 25.9539 31.1311 24.6477 34.0609 22.4961C34.0865 22.4771 34.1027 22.4486 34.1054 22.4173C34.8196 15.0287 32.9092 8.61071 29.0411 2.92116C29.0316 2.90215 29.0155 2.88855 28.9965 2.88039ZM11.4462 18.5246C9.75851 18.5246 8.36789 16.9751 8.36789 15.0723C8.36789 13.1694 9.73154 11.62 11.4462 11.62C13.1744 11.62 14.5515 13.183 14.5245 15.0723C14.5245 16.9751 13.1608 18.5246 11.4462 18.5246ZM22.8278 18.5246C21.1401 18.5246 19.7495 16.9751 19.7495 15.0723C19.7495 13.1694 21.1131 11.62 22.8278 11.62C24.556 11.62 25.9331 13.183 25.9061 15.0723C25.9061 16.9751 24.556 18.5246 22.8278 18.5246Z" fill="white"/>
<path d="M81.6811 0H86.2115L76.3162 11.3856L87.9998 26.8246H78.8198L71.6666 17.4658L63.4404 26.8246H58.91L69.5206 14.6641L58.3139 0H67.7323L74.2298 8.58387L81.6811 0ZM80.0716 24.0825H82.5753L66.3613 2.56324H63.6192L80.0716 24.0825Z" fill="white"/>
</svg>
